X:1
T:Title
%%score { ( 1 3 4 ) | ( 2 5 ) }
L:1/8
M:4/4
K:C
V:1 treble nm="Grand Piano"
V:3 treble 
V:4 treble 
V:2 bass 
V:5 bass 
V:1
 z4 z2[Q:1/4=100] [CE]2 | z4 B4 | G6 G2 | A2 c2 e3 d | [Ec]6 c2 | f2 e2 d2 c2 | %6
 [Fc]2 [DB]2 [Cc]2 [CE]2 | z4 G4 | E6 [DE]2 | [Cc]2 [DEB]2 [CEA]2 [B,DE]2 | A6 z2 | c2 c2 d2 A2 | %12
 B6 A2 | G2 f2 [Ge]2 [Gd]2 | [Gc]2 c2 B2 A2 | z4[K:bass] D4 |[M:3/4] [C,E,C]6 |] %17
V:2
 z4 z2 [C,G,]2 | [C,G,]2 [C,G,]2 [D,G,]2 [D,B,]2 | [E,C]6 [E,C]2 | %3
 [F,CF]2 [F,A,F]2 [G,,B,F]3 [G,,B,F] | [C,C]6[K:treble] [CE]2 | %5
 [A,CF]2 [G,B,G]2[K:bass] [F,A,D]2 [E,G,E]2 | [D,A,]2 [E,^G,]2 [A,,A,]2 [A,,A,]2 | %7
 [A,,F,]2 [F,,F,]2 [G,,D,]2 [B,,G,]2 | [C,G,C]6 [B,,^G,]2 | [A,,A,]2 A,,2 A,,2 A,,2 | %10
 z2 E,2 A,2 A,,2 | [A,CE]2 [G,A,E]2 [^F,A,D]2 [F,CD]2 | [G,B,D]6 [A,CF]2 | %13
 [B,DF]2 [G,B,F]2[K:bass] [F,B,]2 [F,B,]2 | [E,C]2 [E,G,C]2 [F,C]2 [F,C]2 | %15
 [E,G,C]2 [D,A,C]2 F,,2 z C |[M:3/4] C,,6 |] %17
V:3
 x8 | [DF]2 [EG]2 F2 z A | x8 | x8 | x8 | x8 | x8 | [CF]2 [CA]2 B,2 z F | x8 | x8 | %10
 [A,C]2 B,2 C2 [CEA]2 | x8 | x8 | x8 | x8 | G2 F2[K:bass] [A,C]2 [F,B,]2 |[M:3/4] x6 |] %17
V:4
 x8 | z4 z2 F2 | x8 | x8 | x8 | x8 | x8 | z4 z2 D2 | x8 | x8 | x8 | x8 | x8 | x8 | x8 | %15
 x4[K:bass] x4 |[M:3/4] x6 |] %17
V:5
 x8 | x8 | x8 | x8 | x6[K:treble] x2 | x4[K:bass] x4 | x8 | x8 | x8 | x8 | A,,6 z2 | x8 | x8 | %13
 x4[K:bass] x4 | x8 | z4 z2 G,,2 |[M:3/4] x6 |] %17

